icons/planet.svg

<svg width="24" height="24" viewBox="0 0 24 24" fill="none" xmlns="http://www.w3.org/2000/svg">
<path fill-rule="evenodd" clip-rule="evenodd" d="M11.2004 13.8051C9.32486 12.578 7.65367 11.2953 6.30935 10.0922L11.2004 13.8051ZM6.30935 10.0922C7.10629 7.71352 9.35408 6 12 6C15.3137 6 18 8.68629 18 12C18 12.4683 17.9465 12.9229 17.8458 13.3585C17.5592 14.5976 16.8874 15.6917 15.9617 16.5063C14.5019 15.8137 12.8757 14.9009 11.2005 13.8052M16.2028 18.8082C17.5605 19.3862 18.8015 19.782 19.817 19.9321C20.3835 20.0158 20.9475 20.0338 21.447 19.9198C21.9596 19.8027 22.5008 19.5183 22.7987 18.9345L22.8008 18.9304C23.0655 18.4058 23.0297 17.8445 22.9049 17.3777C22.779 16.9065 22.5359 16.4252 22.2341 15.9553C21.6991 15.1225 20.8945 14.1956 19.905 13.2357C19.9676 12.8325 20 12.4197 20 12C20 7.58172 16.4183 4 12 4C10.4559 4 9.01435 4.43729 7.79212 5.19471C6.49506 4.66274 5.26167 4.28036 4.24161 4.12349C3.67193 4.03589 3.1037 4.00795 2.60429 4.1028C2.10904 4.19685 1.51568 4.44981 1.20213 5.06472M6.03881 6.66491C5.52549 7.23819 5.09364 7.88594 4.76141 8.58995C4.19484 7.9852 3.75374 7.43463 3.44954 6.96033C3.20876 6.58492 3.08062 6.29844 3.02787 6.10116C3.02401 6.08673 3.02069 6.07331 3.01782 6.06085C3.20486 6.0328 3.50666 6.03398 3.93762 6.10026C4.51947 6.18973 5.23534 6.38131 6.03881 6.66491ZM2.87555 6.09584C2.87542 6.09576 2.87717 6.09477 2.88121 6.09309C2.87771 6.09507 2.87568 6.09591 2.87555 6.09584ZM19.2392 15.4088C18.9037 16.1203 18.4665 16.774 17.9468 17.3513C18.7998 17.6674 19.5309 17.8681 20.1095 17.9536C20.5444 18.0179 20.829 18.007 20.9907 17.9724C20.9867 17.9504 20.9809 17.9245 20.9728 17.8942C20.92 17.6969 20.792 17.4109 20.5513 17.0362C20.2471 16.5627 19.806 16.0132 19.2392 15.4088ZM20.9993 18.0729C20.9993 18.0729 20.9994 18.0722 20.9996 18.071L20.9993 18.0729ZM21.0841 17.9445C21.086 17.9434 21.0871 17.9428 21.0872 17.9429C21.0873 17.9429 21.0863 17.9435 21.0841 17.9445ZM13.877 17.7008C13.2869 17.895 12.6561 18 12 18C8.84774 18 6.26326 15.5691 6.01888 12.4797C7.22677 13.4796 8.60843 14.4993 10.1055 15.4788L10.1056 15.4789C11.3984 16.3244 12.6715 17.0709 13.877 17.7008ZM16.2028 18.8082C14.9811 19.5638 13.5404 20 12 20C7.58171 20 3.99999 16.4183 3.99999 12C3.99999 11.5799 4.03246 11.1667 4.09517 10.7631C3.10533 9.80257 2.30078 8.87381 1.76605 8.04009C1.46441 7.56978 1.22158 7.08836 1.09575 6.61781C0.971365 6.15263 0.934425 5.58972 1.20211 5.06475" fill="black"/>
</svg>

<svg
  width="24"
  height="24"
  viewBox="0 0 24 24"
  xmlns="http://www.w3.org/2000/svg"
>
  <path
    fill-rule="evenodd"
    clip-rule="evenodd"
    d="M11.2 13.805c-1.875-1.227-3.546-2.51-4.89-3.713l4.89 3.713zm-4.89-3.713a6 6 0 1 1 9.652 6.414c-1.46-.692-3.086-1.605-4.761-2.7m5.002 5.002c1.358.578 2.599.974 3.614 1.124.567.084 1.13.102 1.63-.012.513-.117 1.054-.402 1.352-.986l.002-.004c.265-.524.229-1.085.104-1.552-.126-.471-.37-.953-.67-1.423-.536-.832-1.34-1.76-2.33-2.72A8 8 0 0 0 7.792 5.195c-1.297-.531-2.53-.914-3.55-1.07-.57-.088-1.138-.116-1.638-.021-.495.094-1.088.347-1.402.962m4.837 1.6A8.014 8.014 0 0 0 4.76 8.59c-.566-.605-1.007-1.155-1.311-1.63-.241-.375-.37-.662-.422-.859a1.187 1.187 0 0 1-.01-.04c.187-.028.489-.027.92.04.581.089 1.297.28 2.1.564zm-3.163-.57l.005-.002a.028.028 0 0 1-.005.003zm16.363 9.314a8.012 8.012 0 0 1-1.292 1.942c.853.316 1.584.517 2.163.603.434.064.719.053.88.018a.994.994 0 0 0-.017-.078c-.053-.197-.181-.483-.422-.858-.304-.473-.745-1.023-1.312-1.627zM21 18.073v-.002.002zm.085-.128a.013.013 0 0 1 .003-.002l-.003.002zm-7.207-.244a6 6 0 0 1-7.858-5.221c1.208 1 2.59 2.02 4.086 2.999a45.135 45.135 0 0 0 3.772 2.222zm2.326 1.107a8 8 0 0 1-12.108-8.045c-.99-.96-1.794-1.89-2.329-2.723-.302-.47-.544-.952-.67-1.422-.125-.465-.162-1.028.106-1.553"
  />
</svg>
